X:1
T:Io son si vago
T:Io son si vago
T:Philippe de Monte
T:Source: Harmonia celeste---Anversa---P.Phalesio & G.Bellero---1583. Editor: André Vierendeels (21/11/13).
T:Notes: Original clefs :C1, C3, C4, F4 Editorial accidentals above the staff Square bracket indicates ligature 
C:Philippe de Monte
%%score [ 1 2 3 4 ]
L:1/8
Q:1/4=120
M:2/2
K:C
V:1 treble nm="Canto" snm="C"
V:2 treble-8 nm="Tenor 1" snm="T1"
V:3 treble-8 nm="Tenor 2" snm="T2"
V:4 bass nm="Basso" snm="B"
V:1
 A8 | c4 c4 | c6 B2 | A6 G2 | F4 A4 | c8 | c8 | z4 d4- | d4 c4 | A4 E4 | F2 G2 A2 B2 | c4 A4 | A8 | %13
w: Io|son si|va- go|de li|miei so-|spi-|ri,|de-|_ li|miei so-|spi- * * *||ri,|
 z4 A4 | F4 F4 | F6 G2 | A4 D4 | F4 F4 | E8 | D8 | z4 A4 | F4 G4 | A4 F4 | E4 A4 | G4 c4 | %25
w: io|son si|va- go|de li|miei so-|spi-|ri,|et|si scon-|ten- to|son de|la mia|
 B2 c2 d4- | d2 c2 c4- | c4 B4 | c8 | z4 A4 | E4 A4 | G4 C4 | G8 | G4 D2 E2 | F2 G2 A4- | A4 c4 | %36
w: sor- * *|||te,|don-|n'in tui|so- la|son-|n'i miei _|_ _ _|* de-|
 B4 A4 | c4 B4- | B4 A4 | A8- | A8 | ^G8 | z8 | z8 | z8 | z4 A4- | A2 G2 G4 | F4 E4 | F8 | E4 C4- | %50
w: si- ri,|i miei|_ de-|si-||ri,||||ch'altr'|_ ho- mai|non as-|pet-|to che|
 C4 A,4 | E4 E4 | z8 | z4 A4- | A2 G2 G4 | F4 E4 | c4 A4 | c4 B4 | A8 | A8 | z4 G4 | A4 A4 | %62
w: _ la|mor- te,||ch'altr'|_ ho- mai|non as-|pet- to|che la|mor-|te,|ben|ch'el pia-|
 c4 B4 | A4 G4 | F8- | F4 E4 | C4 D4 | E8 | z4 A4 | c6 B2 | A4 G4 | z4 B4 | c6 B2 | A4 G4 | F4 E4 | %75
w: cer ch'i|trag- go|da'i|_ mar-|ti- *|ri,|a|vi- ver|sem- pre,|a|vi- ver|sem- pre|par che|
 A8- | A4 G4 | A8 | F4 A4 | A4 A4 | F8 | _B8 | A8 | A4 G4- | G2 F2 F4- | F4 E4 | F4 z2 A2 | %87
w: mi|_ con-|for-|te, tal|ch'a l'af-|flit-|t'e|qua-|si mor-|* to- cuo-||re, tor-|
 G2 E2 G2 G2 | F4 E3 F |: G4 z4 | c4 B2 G2 | A3 B c4 | B4 z4 | c4 B2 G2 | A3 B c4 | A4 G4- | %96
w: na la vi- ta|sem- * *|pre,|tor- na la|vi- ta sem-|pre,|tor- na la|vi- ta sem-||
 G4 F4 | E8 | D4 z2 A2 | G2 E2 G2 G2 |1 F4 E3 F :|2 A2 A4 G2 || F8 | E8 |] %104
w: ||pre, tor-|na la vi- ta|sem- * *|pre, col- do-|lo-|re.|
V:2
 z8 | z8 | z8 | z4 A4 | c4 c4 | c6 d2 | e4 c4 | d4 g4 | f4 e4 | e8 | A8 | f4 f4 | f4 a4 | g4 e4 | %14
w: |||Io|son si|va- go|de li|miei so-|spi- *||ri,|io son|si va-|go so-|
 d2 e2 f2 g2 | a8 | d8 | a8- | a8 | ^f8 | z8 | z4 e4 | c4 d4 | e4 c4 | B4 g4- | g4 a4- | a4 e4 | %27
w: spi- * * *|||||ri,||et|si scon-|ten- to|son de|_ la|_ mia|
 g8 | e4 e4- | e4 A4 | c8 | B4 A4 | d4 c4 | B2 G2 B4 | A4 a4 | e4 a4 | g4 c4 | g4 g4 | %38
w: sor-|te, don|_ n'in|tui|so- la|son- n'i|miei de- si-|ri, don-|n'in tui|so- la|son- n'i|
 d2 e2 f2 g2 | a4 e4 | f8 | e8- | e8 | e6 d2 | d4 c4 | A4 f4- | f4 e4 | d4 ^c4 | d8 | B4 e4- | %50
w: miei _ _ _|_ de-|si-|ri,|_|ch'altr' ho-|mai non|as- pet-|* to|la mor-||te, ch'altr'|
 e2 d2 d4 | c4 B4 | c8 | A4 A4- | A4 d4 | c8 | A4 a4 | a4 ^g4 | a4 e4 | f6 e2 | d4 c4 | f8 | %62
w: _ ho- mai|non as-|pet-|to che|_ la|mor-|te, ben|ch'el pia-|cer ch'io|trag- go|da'i- mar-|ti-|
 e4 e4 | e4 e4 | c4 c4 | d4 G4 | A4 A4 | c4 B2 B2 | c6 B2 | A4 G4 | A4 e4 | e2 c2 d4 | e8 | z4 e4 | %74
w: ri,- ben|ch'el pia-|cer ch'io|trag- go|da'i mar-|ti- ri, a|vi- ver|sem- pre|par che|mi con- for-|te,|a|
 c6 B2 | A4 f4 | e4 d4 | e4 e4 | a4 f4 | f8 | d4 d4 | f8- | f4 F4 | c4 d4 | d4 A4 | c8 | A8 | z8 | %88
w: vi- ver|sem- pre|par che|mi con-|for- te,|tal|ch'a l'af-|flit-|* t'e|qua- si|mor- to|cuo-|re,||
 z4 z2 c2 |: B2 G2 A2 B2 | cd ef g4 | f2 f2 e2 c2 | d2 e2 A4 | e2 a2 g2 e2 | f3 g a4 | f4 e4- | %96
w: tor-|na la vi- ta|sem- * * * *|pre, tor- na la|vi- ta sem-|pre, tor- na la|vi- ta sem-||
 e2 d2 d4- | d4 c4 | d2 f2 e2 c2 | e6 B2 |1 d4 e2 c2 :|2 f2 f4 e2 || d8 | ^c8 |] %104
w: ||pre, tor- na la|vi- ta|sem- pre, tor-|pre, col do-|lo-|re.|
V:3
 z8 | z4 A4 | c4 c4 | c6 B2 | A6 G2 | F4 A4 | G4 F2 E2 | D8 | A4 A4 | c4 c4 | c6 B2 | A4 c4 | d8- | %13
w: |Io|son si|va- go|de li|miei so-|spi- * *||ri, io|son si|va- go|de li|miei|
 d4 ^c4 | d8 | D4 F4- | F4 _B4 | A2 D2 d4- |"^#" d4 c4 | z4 A4 | B4 c4 | d4 B2 c2- | c2 A4 B2 | %23
w: _ so-|spi-|ri, de|_ li|miei so- spi-|* ri,|et|si scon-|ten- to, et|_ si scon-|
 c4 A4 | e4 e4 | d4 f4 | e6 dc | d8 | c8 | z8 | e8- | e8 | B4 e4 | d4 G4 | d2 d2 A2 B2 | %35
w: ten- to|son de|la mia|sor- * *||te,||don-||n'in tui|so- la|son- n'in miei _|
 c2 d2 e4- | e4 e4 | e6 dc | B2 c2 d4- | d2 c2 c2 Bc | d8 | B8 | z4 c4- | c2 B2 B4 | A4 G4 | c8- | %46
w: _ _ _|* de-|si- * *||||ri,|ch'altr'|_ ho- mai|non as-|pet-|
 c8 | A4 A4- | A2 D2 A4- | A4 G4 | F8 | E8 | z4 e4- | e2 d2 d4 | c4 B4 | c4 A4 | c4 d4 | e4 e4 | %58
w: |to la|_ la mor-|||te,|ch'altr'|_ ho- mai|non as-|pet- to|che la|mor- te,|
 z4 c4 | d4 d4 | f4 e4 | d4 c4 | A4 B4 | c6 B2 | A2 G2 A4- | A2 B2 c4- | c2 B2 A4- | A4 G4 | A8 | %69
w: ben|ch'el pia-|cer ch'i|trag- go|da'i mar-|ti- *|||||ri,|
 z8 | z4 E4 | c4 B4 | A4 G4 | F4 E4 | F4 C4 | c6 B2 | c2 A2 d4- | d4 ^c4 | d8 | z4 A4 | A4 A4 | %81
w: |a|vi- ver|sem- pre|par che|mi con-|for- *|||te,|tal|ch'af- flit-|
 d8 | c4 c4- | c4 _B4 | A4 F4 | G8 | F8 | c4 B2 G2 | A2 B2 c3 d |: e4 d2 d2 | f2 c2 d2 e2 | d4 A4 | %92
w: |t'e qua-|* si|mor- to|cuo-|re,|tor- na la|vi- ta sem- *|* pre, tor-|na la vi- ta|sem- pre,|
 z4 z2 d2 | c2 A2 B2 c2 | F4 c4 | c4 c4 | A8 | A8 | z2 d2 c2 A2 | c2 c2 B2 AG |1 A3 B c3 d :|2 %101
w: tor-|na la vi- ta|sem- pre|col do-|lo-|re,|tor- na la|vi- ta sem- * *||
 A8 || A8- | A8 |] %104
w: lo-|re.|_|
V:4
 z8 | z8 | z4 A,4 | F,4 F,4 | F,6 G,2 | A,4 A,,4 | C,4 C,4 | B,,8 | A,,8 | z4 A,4 | F,4 F,4 | %11
w: ||Io|son si|va- go|de li|miei so-|spi-|ri,|io|son si|
 F,6 E,2 | D,4 F,4 | G,4 A,4 | _B,8 | A,4 D,4- | D,4 G,4 | F,4 D,4 | A,8 | D,8 | z4 F,4 | D,4 E,4 | %22
w: va- go|de li|miei so-|spi-|re, de|_ li|miei so-|spi-|ri,|et|si scon-|
 F,4 D,4 | A,8 | E,8 | G,4 D,4 | A,8 | G,8 | z8 | A,8- | A,8 | E,4 A,4 | G,4 C,4 | G,4 G,4 | %34
w: ten- to|son|de|la mia|sor-|te,||don-||n'in tui|so- la|son- n'i|
 D,2 E,2 F,2 G,2 | A,4 A,4 | E,4 A,4 | z4 E,4 | G,4 D,2 E,2 | F,2 G,2 A,4 | D,8 | E,8 | z4 A,4- | %43
w: miei _ _ _|_ de-|si- ri,|i|miei de- *|* * si-||ri|ch'altr'|
 A,2 G,2 G,4 | F,4 E,4 | F,8 | C,8 | D,4 A,,4 | D,8 | E,8 | z4 A,4- | A,2 G,2 G,4 | F,4 E,4 | %53
w: _ ho- mai|non as-|pet-||to la|mor-|te,|ch'altr'|_ ho- mai|non as-|
 F,6 D,2 | F,4 G,4 | A,6 G,2 | F,8 | E,8 | z8 | z8 | z8 | z4 A,4 | A,4 ^G,4 | A,4 E,4 | F,6 E,2 | %65
w: pet- to|che ma|mor- *||te,||||ben|ch'el pia-|cer ch'il|trag- go|
 D,4 C,4 | F,8 | E,8 | A,,8 | z4 E,4 | C6 B,2 | A,4 G,4 | z4 E,4 | C6 B,2 | A,4 G,4 | F,6 G,2 | %76
w: da'i mar-|ti-||ri,|a|vi- ver|sem- pre,|a|vi- ver|sem- pre|par che|
 A,4 _B,4 | A,8 | D,8 | z4 D,4 | D,4 D,4 | _B,,8 | F,4 F,4- | F,4 _B,,4 | D,4 D,4 | C,8 | %86
w: mi con-|for-|te,|tal|ch'af- flit-||t'e qua-|* si|mor- to|cuo-|
 F,,4 z2 F,2 | E,2 C,2 E,2 E,2 | D,4 A,,2 A,2 |: G,2 E,2 F,2 G,2 | A,4 G,4 | z4 z2 A,2 | %92
w: re, tor-|na la vi- ta|sem- pre, tor-|na la vi- ta|sem- pre,|tor-|
 G,2 E,2 F,3 G, | A,4 E,4 | z4 F,4- | F,4 C,4 | D,8 | A,,8 | z4 z2 F,2 | E,2 C,2 E,2 E,2 |1 %100
w: na la vi- ta|sem- pre,|col|_ do-|lo-|re,|tor-|na la vi- ta|
 D,4 A,,2 A,2 :|2 D,8- || D,8 | A,,8 |] %104
w: sem- pre, tor-|lo-||re.|

